X:82
T:Polka
R:Polka
Z:Bert Van Vreckem <http://flanders.blackmill.net/music/>
M:2/4
L:1/8
K:Am
"Am"Aa Aa|"C"g/a/g/f/ ec|"G"dd BG|"F"A/B/c/d/ eA|\
"Am"A2a2|"C"g/a/g/f/ ec|"Am"A>B "G"cB|[1 "F"A2A2:|[2 ("Am"A2 A) B/c/||
|:"G"dd "Em"BG|"Am"A/B/c/d/ "C"ec|"G"dd "Em"BG|"Am"A/B/c/d/ "C"e2|\
"G"dd "Em"BG|"Am"A/B/c/d/ "C"ec|"Am"A>B "G"cB|[1 "F"A2 AB/c/:|[2 "Am"Aa Aa||

